packages/icons/svg/Universe_Floor_64px.svg

<svg xmlns="http://www.w3.org/2000/svg" viewBox="0 0 64 64"><path d="M46 34H30V18a2 2 0 00-2-2H11a2 2 0 00-2 2v35a2 2 0 002 2h35a2 2 0 002-2V36a2 2 0 00-2-2zM12 19h15v15H12zm15 33H12V37h15zm18 0H30V37h15z"/><path d="M53 9H36a2 2 0 00-2 2v17a2 2 0 002 2h17a2 2 0 002-2V11a2 2 0 00-2-2zm-1 18H37V12h15z"/></svg>

<svg xmlns="http://www.w3.org/2000/svg" viewBox="0 0 64 64"><defs></defs><g id="Icon"><path  d="M46,34H30V18a2,2,0,0,0-2-2H11a2,2,0,0,0-2,2V53a2,2,0,0,0,2,2H46a2,2,0,0,0,2-2V36A2,2,0,0,0,46,34ZM12,19H27V34H12ZM27,52H12V37H27Zm18,0H30V37H45Z"/><path  d="M53,9H36a2,2,0,0,0-2,2V28a2,2,0,0,0,2,2H53a2,2,0,0,0,2-2V11A2,2,0,0,0,53,9ZM52,27H37V12H52Z"/></g></svg>
